X:69
T:Hur du v\"ander dig
R:sl\"angpolska
H:Text jfr #109, #169
A:\"Osterg\"otland
Z:id:hn-sp-69
M:3/4
L:1/16
K:Dm =b
d2A2 d2f2 e2d2 | e3d e2g2 f2e2 | \
w:Hur du v\"an-der dig {\aa} hur du sv\"ang-er dig s{\aa}
f3e d2e2 f2f2 | e2e2 d8 :| \
w:la-ga att du har en trogen v\"an.
|: a2f2 f4 f2a2 | g2f2 (f2e2) e4 | \
w:Snart f\"or-g{\aa}r di-na ung-doms-da_gar
a2f2 f4 f2a2 | g2f2 (f2e2) e4 | \
w:snart f\"or-g{\aa}r di-na ung-doms-da_gar
d2A2 d2f2 e2d2 | e3d e2g2 f2e2 | \
w:ald-rig kom-ma de, nej, ald-rig kom-ma de, nej,
d2c2 d2b2 a2g2 | f2e2 d8 ||
w:ald-rig kom-ma de, h\"ar mer i-gen.
<end>
<start>
